X: 13593
T: Flying Weasel, The
R: reel
M: 4/4
K: Bminor
cde|:f2 ec B3f|ecde fecd|BFGA G3B|BA (3Bcd edcd|
fa ec B3f|ecde fecd|BFGA B3d|1 edcd Bcde:|2 edcd B3 A||
|:BF3 decd|BFGA G3B|BA (3Bcd edea|gfed fecd|
BF3 decd|BFGA G3B|BA (3Bcd edef|1 fecd (3Bcd cd:|2 fecd Bcde||

